X:238
T: Jiaolaoxiang nishiting
N: C1731
O: China, Liaoning Chifeng
S: III, 220, 1)]
R: Xiaodiao, Jiujinshan diao]
M: 2/4
L: 1/16
K: F
c4f4 | d2f2c4 | c4f4 | d2f2B4 | c4c4 | F2z2d2c2 | B2c2B4z4
c2=B2c4 | c2c2G2A2 | c2B2c2d2 | A3cA2G2 | F2F2F2G2 | A6F2 | G4z2c2
A2G2F2G2 | F4z4

